tokens/whype.svg

<svg xmlns="http://www.w3.org/2000/svg" fill="none" viewBox="0 0 48 48">
  <path fill="#fff" d="M0 0h48v48H0z"/>
  <circle cx="24" cy="24" r="24" fill="#d9fbf5"/>
  <path fill="#022d26" d="M7.05 22.45c.06-2.01.64-3.3 1.23-4.33.59-1.04 1.36-1.66 2.3-1.86.95-.21 1.92-.36 3.38.62 1.45.98 3.85 4.38 5.36 5.26s2.58.39 3.68 0 1.72-.69 2.92-2.32 2.99-6.04 4.29-7.43c1.3-1.4 2.4-1.04 3.53-.93 1.12.1 2.25.64 3.22 1.55.97.9 1.99 2.34 2.61 3.87.61 1.52.94 3.38 1.07 5.26.13 1.89.15 4.05-.31 6.04s-1.4 4.49-2.45 5.88c-1.05 1.4-2.61 2.2-3.84 2.48-1.22.29-2.12.54-3.52-.77-1.41-1.32-3.5-5.6-4.91-7.12-1.41-1.53-2.35-1.81-3.53-2.02-1.17-.2-2.17-.28-3.52.78-1.36 1.05-3.43 4.54-4.6 5.57-1.18 1.03-1.69.7-2.46.62s-1.56-.52-2.15-1.08c-.58-.57-.99-.65-1.38-2.33-.38-1.67-.97-5.73-.92-7.74"/>
</svg>

<svg xmlns="http://www.w3.org/2000/svg" width="32" height="32" viewBox="0 0 48 48" fill="none">
    <rect width="48" height="48" fill="#FFFFFF"/>
    <circle cx="24" cy="24" r="24" fill="#D9FBF5"/>
    <path fill="#022D26" d="M7.05 22.45C7.11 20.44 7.69 19.15 8.28 18.12C8.87 17.08 9.64 16.46 10.58 16.26C11.53 16.05 12.5 15.9 13.96 16.88C15.41 17.86 17.81 21.26 19.32 22.14C20.83 23.02 21.9 22.53 23 22.14C24.1 21.75 24.72 21.45 25.92 19.82C27.12 18.19 28.91 13.78 30.21 12.39C31.51 10.99 32.61 11.35 33.74 11.46C34.86 11.56 35.99 12.1 36.96 13.01C37.93 13.91 38.95 15.35 39.57 16.88C40.18 18.4 40.51 20.26 40.64 22.14C40.77 24.03 40.79 26.19 40.33 28.18C39.87 30.17 38.93 32.67 37.88 34.06C36.83 35.46 35.27 36.26 34.04 36.54C32.82 36.83 31.92 37.08 30.52 35.77C29.11 34.45 27.02 30.17 25.61 28.65C24.2 27.12 23.26 26.84 22.08 26.63C20.91 26.43 19.91 26.35 18.56 27.41C17.2 28.46 15.13 31.95 13.96 32.98C12.78 34.01 12.27 33.68 11.5 33.6C10.73 33.52 9.94 33.08 9.35 32.52C8.77 31.95 8.36 31.87 7.97 30.19C7.59 28.52 7 24.46 7.05 22.45Z"/>
</svg>
